src/images/app-icons/light-theme/035.svg

<svg xmlns="http://www.w3.org/2000/svg" viewBox="0 0 32 32"><defs><linearGradient id="035_svg__a" x1="72.5" y1="-22.523" x2="82.658" y2="-22.523" gradientTransform="translate(-66.5 49.5)" gradientUnits="userSpaceOnUse"><stop offset=".001" stop-opacity="0"/><stop offset=".7"/></linearGradient><linearGradient id="035_svg__c" y1="32" x2="32" gradientUnits="userSpaceOnUse"><stop offset=".1" stop-color="#42be65"/><stop offset=".9" stop-color="#007d79"/></linearGradient><mask id="035_svg__b" x="0" y="0" width="32" height="32" maskUnits="userSpaceOnUse"><path d="M26 3.977h-4v-2h-2v2h-8v-2h-2v2H6a2 2 0 00-2 2v20a2 2 0 002 2h10v-2H6v-20h4v2h2v-2h8v2h2v-2h4V10h2V5.977a2 2 0 00-2-2z" fill="#fff"/><path fill="url(#035_svg__a)" d="M6 24.977h10.158v4H6z" data-name="Gradients (black)"/></mask></defs><g data-name="Layer 2"><g data-name="Light theme icons"><g mask="url(#035_svg__b)"><path fill="url(#035_svg__c)" d="M0 0h32v32H0z"/></g><path d="M27 12v2h1v4a3 3 0 01-6 0v-4h1v-2h-3v6a5.009 5.009 0 004 4.9V24a4 4 0 01-8 0v-2.184a3 3 0 10-2 0V24a6 6 0 0012 0v-1.1a5.009 5.009 0 004-4.9v-6zm-12 6a1 1 0 11-1 1 1 1 0 011-1z" fill="#001d6c"/></g></g></svg>

<svg xmlns="http://www.w3.org/2000/svg" xmlns:xlink="http://www.w3.org/1999/xlink" viewBox="0 0 32 32"><defs><style>.cls-1{fill:#fff;}.cls-2{fill:url(#linear-gradient);}.cls-3{mask:url(#mask);}.cls-4{fill:url(#linear-gradient-2);}.cls-5{fill:#001d6c;}</style><linearGradient id="linear-gradient" x1="72.5" y1="-22.523" x2="82.658" y2="-22.523" gradientTransform="translate(-66.5 49.5)" gradientUnits="userSpaceOnUse"><stop offset="0.001" stop-opacity="0"/><stop offset="0.7"/></linearGradient><mask id="mask" x="0" y="0" width="32" height="32" maskUnits="userSpaceOnUse"><path class="cls-1" d="M26,3.977H22v-2H20v2H12v-2H10v2H6a2,2,0,0,0-2,2v20a2,2,0,0,0,2,2H16v-2H6v-20h4v2h2v-2h8v2h2v-2h4V10h2V5.977A2,2,0,0,0,26,3.977Z"/><g id="Gradients_black_" data-name="Gradients (black)"><rect class="cls-2" x="6" y="24.977" width="10.158" height="4"/></g></mask><linearGradient id="linear-gradient-2" y1="32" x2="32" gradientUnits="userSpaceOnUse"><stop offset="0.1" stop-color="#42be65"/><stop offset="0.9" stop-color="#007d79"/></linearGradient></defs><g id="Layer_2" data-name="Layer 2"><g id="Light_theme_icons" data-name="Light theme icons"><g class="cls-3"><rect class="cls-4" width="32" height="32"/></g><path class="cls-5" d="M27,12v2h1v4a3,3,0,0,1-6,0V14h1V12H20v6a5.009,5.009,0,0,0,4,4.9V24a4,4,0,0,1-8,0V21.816a3,3,0,1,0-2,0V24a6,6,0,0,0,12,0V22.9A5.009,5.009,0,0,0,30,18V12ZM15,18a1,1,0,1,1-1,1A1,1,0,0,1,15,18Z"/></g></g></svg>
